X:0956
M:2/4
L:1/8
Q:1/4=144
K:D
f|edce|fddf|edcB|(cd/e/) Ad|edce|fddf|fdcB|cAAB|
  dcdA|BGAF|Ddfd| ce`````Ac|dcdA|GBAc|Bedc|d2d|]

